assets/icons/qvision/work_off.svg

<svg width="24" height="24" viewBox="0 0 24 24" fill="none" xmlns="http://www.w3.org/2000/svg">
<g clip-path="url(#clip0_147_5026)">
<path d="M23 21.74L21.54 20.28L7.21001 5.94999L3.25001 1.98999L1.99001 3.24999L4.69001 5.94999H4.05001C2.94001 5.94999 2.06001 6.83999 2.06001 7.94999L2.05001 18.95C2.05001 20.06 2.94001 20.95 4.05001 20.95H19.69L21.74 23L23 21.74ZM22 7.94999C22.05 6.83999 21.16 5.94999 20.05 5.99999H16.05V3.94999C16.05 2.83999 15.16 1.94999 14.05 1.99999H10.05C8.94001 1.94999 8.05001 2.83999 8.05001 3.94999V4.26999L22 18.27V7.94999ZM14.05 5.99999H10V3.94999H14.05V5.99999Z" fill="#323232"/>
</g>
<defs>
<clipPath id="clip0_147_5026">
<rect width="24" height="24" fill="white"/>
</clipPath>
</defs>
</svg>

<svg xmlns="http://www.w3.org/2000/svg" height="24" viewBox="0 0 24 24" width="24"><path d="M0 0h24v24H0z" fill="none"/><path d="M23 21.74l-1.46-1.46L7.21 5.95 3.25 1.99 1.99 3.25l2.7 2.7h-.64c-1.11 0-1.99.89-1.99 2l-.01 11c0 1.11.89 2 2 2h15.64L21.74 23 23 21.74zM22 7.95c.05-1.11-.84-2-1.95-1.95h-4V3.95c0-1.11-.89-2-2-1.95h-4c-1.11-.05-2 .84-2 1.95v.32l13.95 14V7.95zM14.05 6H10V3.95h4.05V6z"/></svg>
